X: 1
T:Mickey's on the Honor Role
M:C
L:1/8
Q:80
C:Michael F. Bell
S:March
K:HP
B|
{g}A2{GAG}A2B3c|
{G}A3B3/2c/2{Gdc}d2{g}e/2f3/2|
{gfg}f3{gef}e2d{g}Bd|  !
{gBd}B2{g}A/2{d}G3/2{GdG}B2{GAG}A2|
{g}A2{GAG}A2B3c|
{G}A3B3/2c/2{Gdc}d2{g}e/2f3/2|  !
{a}f3{gef}e2fg2|
{ag}a2{Gdc}d3{gdG}d2B|
{g}A2{GAG}A2B3c|  !
{G}A3B3/2c/2{Gdc}d2{g}e/2f3/2|
{gfg}f3{gef}e2d{g}Bd|
{gBd}B2{g}A/2{d}G3/2{GdG}B2{GAG}A2{GdG}B2{GAG}A2|  !
{g}A2{GAG}A2B3c|
{G}A3B3/2c/2{Gdc}d2{g}e/2f3/2|
{a}f3{gef}e2fg2|  !
{ag}a2{Gdc}d3{gdG}d2B|]
e|
{g}fa2{g}a3{gfg}f2|
{GdG}a2g{a}f/2a3/2g3|  !
{afg}f2{gef}e2d{gfg}fe2|
{g}Bd2{gBd}B2{g}A/4{d}G3/4{GdG}B2|
{g}fa2{g}a3{gfg}f2|  !
{GdG}a2g{a}f/2a3/2g3|
{afg}f2{gef}e2d{gfg}fe2|
{gBd}B3{GdG}B{A}e3{gf}g|  !
{a}fa2{g}a3{GdG}ag|
{a}f/2a3/2g{ag}a{gBd}B2{GAG}A2|
{gfg}f3{gef}e2d{g}Bd|  !
{gBd}B2{g}A/2{d}G3/2{GdG}B2{GAG}A2|
{g}A2{GAG}A2B3c|
{G}A3B3/2c/2{Gdc}d2{g}e/2f3/2|  !
{a}f3{gef}e2fg2|
{ag}a2{Gdc}d3{gdG}d2B|]
